X:063
U: ~ = !turn!
%%topmargin 3cm
T:Eibhl Geal Chiin Ni Chearbhaill
T:Air
B:Traditional Irish Fiddle Tunes. Randy Miller and Jack Perron.
Z:Transcribed by Ralph Palmer
S:Chieftains
R:Air
M:3/4
L:1/8
K:GMix
G2 | G3 A c2 | d3 c d2 | e3 d c2 | d3 c d2 | e3 d c2 | c A-A2 G2 | G6- | G4 :|]
G2 | d3 e f2 | g3 a g2 | g3 f e2 | d3 c A2 | d3 e f2 | g3 a g2 | f6 | e2 d2 c2 |
d3 e f2 | g3 a g2 | g3 f e2 | d3 c d2 | e3 d c2 | c A-A2 G2 | G6- | G4 |]
